src/packages/tokens/img/sxp.svg

<svg width="24" height="24" viewBox="0 0 24 24" fill="none" xmlns="http://www.w3.org/2000/svg">
<g clip-path="url(#clip0_8_2952)">
<path d="M11.9999 24C18.6274 24 24.0001 18.6273 24.0001 11.9998C24.0001 5.37229 18.6274 -0.000366211 11.9999 -0.000366211C5.37241 -0.000366211 -0.000244141 5.37229 -0.000244141 11.9998C-0.000244141 18.6273 5.37241 24 11.9999 24Z" fill="url(#paint0_linear_8_2952)"/>
<path fill-rule="evenodd" clip-rule="evenodd" d="M11.5655 4.32877C10.8687 4.40907 10.2209 4.72698 9.73108 5.22898C9.36331 5.59312 9.01496 5.96696 8.64233 6.33473C8.45581 6.5261 8.26727 6.71222 8.07873 6.90116C7.89019 7.0901 7.68223 7.29078 7.48641 7.48903C7.29059 7.68728 7.12794 7.86126 6.94669 8.04534C6.66347 8.32856 6.38026 8.61177 6.09705 8.89782C5.87978 9.12237 5.66737 9.3542 5.45253 9.57834C5.3259 9.71226 5.18955 9.83647 5.07019 9.97727C4.57763 10.5782 4.30842 11.3312 4.30835 12.1083C4.30835 12.154 4.30835 12.2009 4.31118 12.2462C4.32125 12.6924 4.43837 13.1296 4.65266 13.5211C4.77465 13.7577 4.91592 13.9838 5.07505 14.1972C5.18024 14.3452 5.25671 14.3428 5.39508 14.2283C5.42152 14.2063 5.44627 14.1824 5.46912 14.1567C5.60547 14.0131 5.73898 13.8698 5.87776 13.7266C6.07358 13.5211 6.27426 13.316 6.47008 13.108C6.6659 12.9 6.87831 12.671 7.08384 12.4562C7.18175 12.351 7.28614 12.2539 7.38486 12.1503C7.59484 11.9282 7.80037 11.6992 8.01036 11.4795C8.22034 11.2598 8.43315 11.0543 8.63869 10.8395C8.84422 10.6246 9.09709 10.3616 9.32851 10.1229C9.55994 9.88421 9.75617 9.68354 9.971 9.46384C10.2506 9.17456 10.5229 8.8784 10.7996 8.58952C10.9716 8.41271 11.1484 8.24319 11.3203 8.06881C11.559 7.8301 11.7811 7.59139 12.0154 7.35268C12.2497 7.11398 12.4236 6.95376 12.6243 6.74822C13.0729 6.29508 13.5208 5.83924 13.968 5.38071C13.9968 5.35224 14.0239 5.32197 14.0489 5.29008C14.1589 5.1513 14.1682 5.12055 14.0323 5.02264C13.8247 4.8591 13.6025 4.71513 13.3684 4.59256C12.9546 4.39905 12.5033 4.29878 12.0466 4.29883H12.0239C11.8713 4.29886 11.7189 4.30845 11.5675 4.32755L11.5651 4.32513L11.5655 4.32877ZM15.5179 7.26853H15.4892C15.2932 7.2686 15.0996 7.31138 14.9219 7.3939C14.7441 7.47642 14.5865 7.5967 14.4599 7.74635C14.4373 7.77142 14.4134 7.79532 14.3883 7.81796L13.6576 8.5345C13.4189 8.77361 13.1608 9.03376 12.91 9.28461C12.7024 9.49216 12.4944 9.69527 12.2893 9.90323C12.0842 10.1112 11.8641 10.3426 11.642 10.5599C11.4198 10.7771 11.1836 11.0049 10.9542 11.2287L10.1397 12.05L8.62574 13.5644C7.95682 14.236 7.28884 14.9063 6.6218 15.5752C6.49314 15.7018 6.49071 15.7184 6.6218 15.8544C6.94183 16.178 7.26672 16.4993 7.57704 16.8254C7.76904 17.0289 8.02242 17.1639 8.29843 17.2097C8.55882 17.2621 8.82783 17.2531 9.08414 17.1834C9.27617 17.1359 9.45341 17.0416 9.6 16.9087L10.393 16.1428C10.5791 15.964 10.768 15.7872 10.9517 15.6055C11.3195 15.2414 11.6824 14.8748 12.0502 14.5131C12.3488 14.2194 12.6547 13.9281 12.9577 13.6344L14.201 12.4226C14.5878 12.0427 14.977 11.6608 15.3687 11.2809C15.3947 11.2421 15.431 11.2112 15.4734 11.1915C15.5159 11.1719 15.5629 11.1642 15.6093 11.1695C15.6558 11.1747 15.7 11.1925 15.737 11.2211C15.774 11.2496 15.8025 11.2878 15.8194 11.3314C16.0184 11.6222 16.1249 11.9663 16.1248 12.3186C16.1248 12.3789 16.1217 12.4391 16.1155 12.4991C16.0834 12.8543 15.9369 13.1895 15.698 13.4543C15.4111 13.7626 15.1057 14.0539 14.8079 14.3501C14.5955 14.5601 14.3782 14.7656 14.1654 14.978C13.8907 15.2503 13.6208 15.5275 13.3461 15.7997C13.3056 15.8451 13.2676 15.8928 13.2247 15.9357L12.9549 16.2153C12.7526 16.4176 12.5466 16.6142 12.348 16.8169C12.1493 17.0196 11.9211 17.2567 11.7087 17.478C11.6897 17.4994 11.6683 17.5136 11.6492 17.5326C11.4101 17.7547 11.1904 17.9777 10.9635 18.2014C10.8563 18.3066 10.7535 18.4138 10.6483 18.519C10.467 18.7031 10.2805 18.8831 10.1061 19.0709C9.99892 19.1829 9.99892 19.2521 10.1256 19.3407C10.3335 19.5003 10.5548 19.6417 10.7871 19.7631C11.3648 20.0244 12.0051 20.1155 12.6328 20.0257C13.2558 19.9517 13.8403 19.6855 14.305 19.2639C14.6582 18.9535 14.9738 18.6048 15.3031 18.2706C15.5418 18.0315 15.7809 17.7762 16.0362 17.5302L16.7265 16.8351C16.9368 16.6227 17.1444 16.4099 17.3572 16.1999C17.57 15.9899 17.8346 15.7391 18.0733 15.5024C18.3121 15.2657 18.5512 15.025 18.7899 14.7717C18.9802 14.5779 19.156 14.3703 19.3158 14.1506C19.6138 13.7004 19.7998 13.1855 19.8584 12.6488C19.8908 12.3822 19.8908 12.1127 19.8584 11.8461C19.7874 11.3717 19.6155 10.9181 19.3543 10.5158C19.1664 10.2311 18.9417 9.97263 18.6859 9.74706C18.0244 9.0904 17.3649 8.4289 16.718 7.75768C16.5769 7.60066 16.4045 7.47506 16.2117 7.38904C16.019 7.30303 15.8103 7.25852 15.5993 7.25841H15.5904L15.5188 7.26812L15.5179 7.26853Z" fill="white"/>
</g>
<defs>
<linearGradient id="paint0_linear_8_2952" x1="1.63493" y1="5.03478" x2="20.8945" y2="18.2124" gradientUnits="userSpaceOnUse">
<stop stop-color="#FF3B3B"/>
<stop offset="1" stop-color="#FF9914"/>
</linearGradient>
<clipPath id="clip0_8_2952">
<rect width="24" height="24" fill="white"/>
</clipPath>
</defs>
</svg>

<svg xmlns="http://www.w3.org/2000/svg" width="24" height="24" fill="none" xmlns:v="https://vecta.io/nano"><g clip-path="url(#B)"><path d="M12 24c6.628 0 12-5.373 12-12S18.627 0 12 0 0 5.372 0 12s5.373 12 12 12z" fill="url(#A)"/><path fill-rule="evenodd" d="M11.566 4.329a3.05 3.05 0 0 0-1.834.9L8.642 6.335l-.564.566-.592.588-.54.556-.85.852-.645.681-.382.399a3.36 3.36 0 0 0-.762 2.131l.003.138c.01.446.127.883.341 1.275.122.237.263.463.422.676.105.148.182.146.32.031.026-.022.051-.046.074-.072l.409-.43.592-.619.614-.652.301-.306.626-.671.628-.64.69-.717.642-.659.829-.874.521-.521.695-.716.609-.604 1.344-1.368c.029-.028.056-.059.081-.091.11-.139.119-.17-.017-.267-.208-.164-.43-.308-.664-.43a3.12 3.12 0 0 0-1.322-.294h-.023a3.65 3.65 0 0 0-.456.029l-.002-.002v.004zm3.952 2.94h-.029a1.35 1.35 0 0 0-1.029.478.98.98 0 0 1-.072.072l-.731.717-.748.75-.621.619-.647.657-.688.669-.815.821-1.514 1.514-2.004 2.011c-.129.127-.131.143 0 .279l.955.971a1.28 1.28 0 0 0 .721.384 1.71 1.71 0 0 0 .786-.026c.192-.047.369-.142.516-.275l.793-.766.559-.537 1.098-1.092.908-.879 1.243-1.212 1.168-1.142c.026-.039.062-.07.105-.089s.09-.027.136-.022.091.023.128.052.066.067.082.11c.199.291.306.635.305.987 0 .06-.003.12-.009.181-.032.355-.179.69-.418.955l-.89.896-.643.628-.819.822-.121.136-.27.28-.607.602-.639.661c-.019.021-.04.036-.059.055l-.686.669-.315.318-.542.552c-.107.112-.107.181.02.27a4.54 4.54 0 0 0 .662.422c.578.261 1.218.352 1.846.263a3.02 3.02 0 0 0 1.672-.762c.353-.31.669-.659.998-.993l.733-.74.69-.695.631-.635.716-.697.717-.731c.19-.194.366-.401.526-.621.298-.45.484-.965.543-1.502.032-.267.032-.536 0-.803-.071-.474-.243-.928-.504-1.33a3.86 3.86 0 0 0-.668-.769l-1.968-1.989c-.141-.157-.314-.283-.506-.369s-.401-.131-.612-.131h-.009l-.072.01h-.001z" fill="#fff"/></g><defs><linearGradient id="A" x1="1.635" y1="5.035" x2="20.895" y2="18.212" gradientUnits="userSpaceOnUse"><stop stop-color="#ff3b3b"/><stop offset="1" stop-color="#ff9914"/></linearGradient><clipPath id="B"><path fill="#fff" d="M0 0h24v24H0z"/></clipPath></defs></svg>
